X:32
T:Qui Marierons-Nous
R:Ronde
A:Normandie
O:France
Z:transcrit par Jean Marc Henry
M:2/4
L:1/8
Q:1/8=216
K:G
z2 BB|G2 B2|d2 cc| BB AG/2A/2| BG BB|G2 B2|d2 cc|BB AA| G2 BB|!
G2 B2|d2 cc| BB AG/2A/2| BG BB|G2 B2|d2 cc|BB AA|G4||
